icons/desktop/_.svg

<?xml version="1.0" encoding="UTF-8" standalone="no"?>
<svg
   height="24"
   id="svg7384"
   version="1.1"
   width="24"
   sodipodi:docname="_.svg"
   inkscape:version="1.1 (ce6663b3b7, 2021-05-25)"
   xmlns:inkscape="http://www.inkscape.org/namespaces/inkscape"
   xmlns:sodipodi="http://sodipodi.sourceforge.net/DTD/sodipodi-0.dtd"
   xmlns="http://www.w3.org/2000/svg"
   xmlns:svg="http://www.w3.org/2000/svg"
   xmlns:rdf="http://www.w3.org/1999/02/22-rdf-syntax-ns#"
   xmlns:cc="http://creativecommons.org/ns#"
   xmlns:dc="http://purl.org/dc/elements/1.1/">
  <sodipodi:namedview
     id="namedview21"
     pagecolor="#ffffff"
     bordercolor="#666666"
     borderopacity="1.0"
     inkscape:pageshadow="2"
     inkscape:pageopacity="0.0"
     inkscape:pagecheckerboard="0"
     showgrid="false"
     inkscape:snap-page="true"
     inkscape:zoom="13.999998"
     inkscape:cx="5.9642864"
     inkscape:cy="17.821431"
     inkscape:window-width="1920"
     inkscape:window-height="1016"
     inkscape:window-x="0"
     inkscape:window-y="27"
     inkscape:window-maximized="1"
     inkscape:current-layer="svg7384" />
  <metadata
     id="metadata20854">
    <rdf:RDF>
      <cc:Work
         rdf:about="">
        <dc:format>image/svg+xml</dc:format>
        <dc:type
           rdf:resource="http://purl.org/dc/dcmitype/StillImage" />
      </cc:Work>
    </rdf:RDF>
  </metadata>
  <defs
     id="defs7386">
    <linearGradient
       id="linearGradient5606"
       inkscape:swatch="solid">
      <stop
         id="stop5608"
         offset="0"
         style="stop-color:#000000;stop-opacity:1;" />
    </linearGradient>
    <linearGradient
       id="linearGradient4526"
       inkscape:swatch="solid">
      <stop
         id="stop4528"
         offset="0"
         style="stop-color:#ffffff;stop-opacity:1;" />
    </linearGradient>
    <linearGradient
       id="linearGradient3600-4"
       inkscape:swatch="gradient">
      <stop
         id="stop3602-7"
         offset="0"
         style="stop-color:#f4f4f4;stop-opacity:1" />
      <stop
         id="stop3604-6"
         offset="1"
         style="stop-color:#dbdbdb;stop-opacity:1" />
    </linearGradient>
  </defs>
  <g
     id="layer9"
     label="status"
     style="display:inline;stroke-width:0.8"
     transform="matrix(1.25,0,0,1.25,-739.25025,385.75)" />
  <g
     id="layer2"
     transform="matrix(1.25,0,0,1.25,-438,-73.000001)"
     style="stroke-width:0.8">
    <path
       d="m 355.99414,62 c -1.25819,0.0145 -2.17883,-0.0306 -2.93164,0.384766 -0.37641,0.20768 -0.67518,0.559426 -0.83984,0.998046 -0.16465,0.43863 -0.22266,0.959598 -0.22266,1.617188 v 7 c 0,0.65759 0.058,1.178558 0.22266,1.617188 0.16466,0.43862 0.46343,0.790366 0.83984,0.998046 0.75281,0.41535 1.67345,0.370226 2.93164,0.384766 h 0.004 8.0039 0.004 c 1.25819,-0.0145 2.17883,0.0306 2.93164,-0.384766 0.37641,-0.20768 0.67324,-0.559426 0.83789,-0.998046 0.16415,-0.43863 0.22443,-0.959598 0.22443,-1.617188 v -7 c 0,-0.65759 -0.06,-1.178558 -0.22461,-1.617188 -0.16465,-0.43862 -0.46148,-0.790366 -0.83789,-0.998046 -0.75281,-0.41536 -1.67345,-0.370226 -2.93164,-0.384766 h -0.004 -8.00586 z m 0.006,1 h 8 c 1.25957,0.0147 2.08706,0.0578 2.45312,0.259766 0.1834,0.10118 0.28915,0.214649 0.38672,0.474609 0.0975,0.25994 0.16016,0.673215 0.16016,1.265625 v 7 c 0,0.59241 -0.0626,1.005675 -0.16016,1.265625 -0.0976,0.25995 -0.20334,0.373429 -0.38672,0.474609 -0.36607,0.20198 -1.19355,0.245076 -2.45312,0.259766 h -0.006 -7.994 z"
       id="path4297"
       style="color:#000000;font-style:normal;font-variant:normal;font-weight:normal;font-stretch:normal;font-size:medium;line-height:normal;font-family:sans-serif;text-indent:0;text-align:start;text-decoration:none;text-decoration-line:none;text-decoration-style:solid;text-decoration-color:#000000;letter-spacing:normal;word-spacing:normal;text-transform:none;writing-mode:lr-tb;direction:ltr;baseline-shift:baseline;text-anchor:start;white-space:normal;clip-rule:nonzero;display:inline;overflow:visible;visibility:visible;opacity:1;isolation:auto;mix-blend-mode:normal;color-interpolation:sRGB;color-interpolation-filters:linearRGB;solid-color:#000000;solid-opacity:1;fill:#808080;fill-opacity:1;fill-rule:nonzero;stroke:none;stroke-width:3.20063;stroke-linecap:butt;stroke-linejoin:miter;stroke-miterlimit:4;stroke-dasharray:none;stroke-dashoffset:0;stroke-opacity:1;marker:none;color-rendering:auto;image-rendering:auto;shape-rendering:auto;text-rendering:auto;enable-background:accumulate" />
  </g>
  <g
     id="layer4"
     transform="matrix(1.25,0,0,1.25,-438,-73.000001)"
     style="stroke-width:0.8" />
  <g
     id="g1812"
     style="display:inline;stroke-width:0.8"
     transform="matrix(1.25,0,0,1.25,-438,-73.000001)" />
  <g
     id="g6217"
     transform="matrix(1.25,0,0,1.25,-438,-73.000001)"
     style="stroke-width:0.8" />
  <g
     id="layer3"
     style="display:inline;stroke-width:0.8"
     transform="matrix(1.25,0,0,1.25,-438,-73.000001)" />
  <g
     id="g1833"
     style="display:inline;stroke-width:0.8"
     transform="matrix(1.25,0,0,1.25,-438,-73.000001)" />
  <g
     id="layer1"
     transform="matrix(1.25,0,0,1.25,-438,-73.000001)"
     style="stroke-width:0.8" />
</svg>

<?xml version='1.0' encoding='UTF-8' standalone='no'?>
<svg xmlns:cc='http://creativecommons.org/ns#' xmlns:dc='http://purl.org/dc/elements/1.1/' height='16.000002' id='svg7384' xmlns:osb='http://www.openswatchbook.org/uri/2009/osb' xmlns:rdf='http://www.w3.org/1999/02/22-rdf-syntax-ns#' xmlns:svg='http://www.w3.org/2000/svg' version='1.1' width='16' xmlns='http://www.w3.org/2000/svg'>
  <metadata id='metadata20854'>
    <rdf:RDF>
      <cc:Work rdf:about=''>
        <dc:title/>
        <dc:format>image/svg+xml</dc:format>
        <dc:type rdf:resource='http://purl.org/dc/dcmitype/StillImage'/>
      </cc:Work>
    </rdf:RDF>
  </metadata>
  <defs id='defs7386'>
    <linearGradient id='linearGradient5606' osb:paint='solid'>
      <stop id='stop5608' offset='0' style='stop-color:#000000;stop-opacity:1;'/>
    </linearGradient>
    <linearGradient id='linearGradient4526' osb:paint='solid'>
      <stop id='stop4528' offset='0' style='stop-color:#ffffff;stop-opacity:1;'/>
    </linearGradient>
    <linearGradient id='linearGradient3600-4' osb:paint='gradient'>
      <stop id='stop3602-7' offset='0' style='stop-color:#f4f4f4;stop-opacity:1'/>
      <stop id='stop3604-6' offset='1' style='stop-color:#dbdbdb;stop-opacity:1'/>
    </linearGradient>
  </defs>
  <g id='layer9' label='status' style='display:inline' transform='translate(-593.0002,307)'/>
  <g id='layer2' transform='translate(-352,-60)'>
    
    <path d='m 355.99414,62 c -1.25819,0.0145 -2.17883,-0.0306 -2.93164,0.384766 -0.37641,0.20768 -0.67518,0.559426 -0.83984,0.998046 C 352.05801,63.821442 352,64.34241 352,65 v 7 c 0,0.65759 0.058,1.178558 0.22266,1.617188 0.16466,0.43862 0.46343,0.790366 0.83984,0.998046 0.75281,0.41535 1.67345,0.370226 2.93164,0.384766 h 0.004 8.0039 0.004 c 1.25819,-0.0145 2.17883,0.0306 2.93164,-0.384766 0.37641,-0.20768 0.67324,-0.559426 0.83789,-0.998046 C 367.93972,73.178558 368,72.65759 368,72 v -7 c 0,-0.65759 -0.06,-1.178558 -0.22461,-1.617188 -0.16465,-0.43862 -0.46148,-0.790366 -0.83789,-0.998046 C 366.18469,61.969406 365.26405,62.01454 364.00586,62 h -0.004 -8.00586 z M 356,63 h 8 c 1.25957,0.0147 2.08706,0.0578 2.45312,0.259766 0.1834,0.10118 0.28915,0.214649 0.38672,0.474609 C 366.9373,63.994315 367,64.40759 367,65 v 7 c 0,0.59241 -0.0626,1.005675 -0.16016,1.265625 -0.0976,0.25995 -0.20334,0.373429 -0.38672,0.474609 C 366.08705,73.942214 365.25957,73.98531 364,74 H 363.994 356 Z' id='path4297' style='color:#000000;font-style:normal;font-variant:normal;font-weight:normal;font-stretch:normal;font-size:medium;line-height:normal;font-family:sans-serif;text-indent:0;text-align:start;text-decoration:none;text-decoration-line:none;text-decoration-style:solid;text-decoration-color:#000000;letter-spacing:normal;word-spacing:normal;text-transform:none;writing-mode:lr-tb;direction:ltr;baseline-shift:baseline;text-anchor:start;white-space:normal;clip-rule:nonzero;display:inline;overflow:visible;visibility:visible;opacity:1;isolation:auto;mix-blend-mode:normal;color-interpolation:sRGB;color-interpolation-filters:linearRGB;solid-color:#000000;solid-opacity:1;fill:#808080;fill-opacity:1;fill-rule:nonzero;stroke:none;stroke-width:4.00079155;stroke-linecap:butt;stroke-linejoin:miter;stroke-miterlimit:4;stroke-dasharray:none;stroke-dashoffset:0;stroke-opacity:1;marker:none;color-rendering:auto;image-rendering:auto;shape-rendering:auto;text-rendering:auto;enable-background:accumulate'/>
  </g>
  <g id='layer4' transform='translate(-352,-60)'/>
  <g id='g1812' style='display:inline' transform='translate(-352,-60)'/>
  <g id='g6217' transform='translate(-352,-60)'/>
  <g id='layer3' style='display:inline' transform='translate(-352,-60)'/>
  <g id='g1833' style='display:inline' transform='translate(-352,-60)'/>
  <g id='layer1' transform='translate(-352,-60)'/>
</svg>
